X:210
T:Quick March. JaW.210
M:2/4
L:1/8
Q:1/2=80
C:"James Winder 1841"
S:James Winder Ms, Lancashire, 1835-41
R:.March
O:England
A:Wyresdale,Lancashire
Z:vmp.Chris Partington, Aug 2004
K:C
(g/a/4b/4)|c'geg|fddf|ecge|e2(df/a/4b/4)|c'geg|fddf|ecdB|c2z|!
|:c|(Bd)dd|(fd)dd|(ce)ee|(ge)ee|aac'a|ggeg|fdcB|c3:|
W:"James Procter is married the 16 of October" |

